X:605
T:Paddy Clancy's
R:Jig
O:Ireland
M:6/8
D:asin=B000005CS0(The Bothy Band: 1975: The First Album)
D:asin=B000005CU6(The Bothy Band: BBC Radio One: The Bothy Band Live In Concert)
D:asin=B000005ZVS(Kenan, et al: Gaelic Roots)
K:D
e|\
afd edc|dcB AFA|dAA efg|fdf efg|\
afd edc|dcB AFA|dAd efg|fdd d2::\
e|\
f3 g3|fgf fed|fef gab|afd e2d|\
f3 g3|fgf fed|faf ede|fdd d2:|
